X: 19
M: 2/4
L: 1/8
K: E
E | G>B B E | A c c e |
e> B B> c | e B B> B | c B c e |
f2 (ef) | (gf/e/) (gf) | (e/c/) (Bc/d/) | {f}He3 c |

